X:1
T:Prelude and Fugue in A minor
T:Prelude and Fugue in A minor
T:BWV 543
T:Johann Sebastian Bach
C:Johann Sebastian Bach
%%score { ( 1 5 6 ) | ( 2 4 ) | 3 }
L:1/8
Q:1/4=81
M:4/4
K:C
V:1 treble nm="Pipe Organ" snm="Org."
V:5 treble 
V:6 treble 
V:2 bass 
V:4 bass 
V:3 bass-8 
V:1
"^Prelude" z/ A/c/A/ e/A/c/A/ f/^G/B/G/ e/=G/B/G/ | e/^F/A/F/ d/=F/A/F/ d/E/^G/E/ c/E/=G/E/ | %2
 c/^D/^F/D/ B/=D/=F/D/ B/^C/E/C/ A/=C/E/C/ | %3
 A/B,/D/B,/ ^G/B,/D/B,/[Q:1/4=108] (3=G/^C/D/ (3E/F/G/ (3F/E/D/ (3=C/B,/A,/ | %4
 (3D/E/F/ (3E/D/C/ (3B,/C/D/ (3C/[I:staff +1]B,/A,/ (3^G,/A,/B,/ (3E,/G,/B,/[I:staff -1] (3D/C/B,/ (3F/E/D/ | %5
 (3C/[I:staff +1]A,/B,/[I:staff -1] (3C/D/E/ (3F/E/D/ (3C/[I:staff +1]B,/A,/[Q:1/4=81] ^G,/F/B,/F/ =G,/E/B,/E/ | %6
[I:staff -1] x8 | x8 | x8 | x8 | x (3E/^G/A/ x (3F/G/A/ x (3E/G/A/ x (3F/E/D/ | %11
 x (3E/^G,/A,/ x (3E/G,/A,/ x (3E/G,/A,/ x (3E/G,/A,/ | %12
 x (3C/D/E/ x (3D/E/F/ x (3C/D/E/ x (3B,/C/D/ | %13
 x (3C/^G,/A,/ x (3D/G,/A,/ x (3E/G,/A,/ x (3E/G,/A,/ | %14
 x (3D/E/F/ x (3E/F/G/ x (3D/E/F/ x (3^C/D/E/ | x (3E/^C/D/ x (3E/C/D/ x (3E/C/D/ x (3E/C/D/ | %16
 (3z/ D/F/ (3A/^c/d/ (3z/ D/G/ (3_B/c/d/ (3z/ D/F/ (3A/c/d/ (3z/ ^C/E/ (3B/A/G/ | %17
 x (3A/^C/D/ x (3G/C/D/ x (3A/C/D/ x (3A/C/D/ | x (3F/G/A/ x (3G/A/_B/ x (3F/G/A/ x (3E/F/G/ | %19
 x (3F/^C/D/ x (3G/C/D/ x (3A/C/D/ x (3B/C/D/ | x (3A/B/c/ x (3B/c/d/ x (3A/B/c/ x (3^G/A/B/ | %21
 C/4 E/4^F/4^G/4A/4B/4c/4d/4 e/4f/4e/4d/4c/4B/4A/4G/4 A/4B/4c/4d/4e/4^f/4^g/4a/4 b/4=f/4e/4d/4 G/4B/4c/4d/4 | %22
 E/4D/4E/4^F/4^G/4A/4B/4c/4 d/4B/4A/4G/4 B,/4D/4E/4=F/4[Q:1/4=40] [Bd]/4e/4[Bd]/4e/4[Q:1/4=60][Bd]/4e/4[Bd]/4e/4[Q:1/4=70] [Bd]/4e/4[Bd]/4e/4[Q:1/4=80][Bd]/4e/4[Bd]/4e/4 | %23
[Q:1/4=75] c4- c2- c>d |[Q:1/4=70] B2-[Q:1/4=60] B/^d/e[Q:1/4=40] z4[Q:1/4=78] | z8 | z8 | %27
 z4 z2 z/ e/f/^c/ | d4- d4 | z/ B,/E/B,/ ^G/E/B/G/ d/B/f/d/ B/d/G/B/ | %30
 D/^G/B,/D/[I:staff +1] ^G,/B,/E,/[I:staff -1]D/ C/D/C/B,/ C/E/A/G/ | A/d/c/B/ c/e/a/^g/ a4- | %32
 aa z2 x4 | x8 | x4 E/4G,/4B,/4D/4G/4B/4d/4B/4 g z | z/ c/e/c/ g/G/c/G/ A/d/f/d/ a/A/d/A/ | %36
 [DB][dg][eg][eg] [ef][df][df][df] | [Gce]/c/e/c/ g/c/e/c/ f/=B/d/B/ e/A/c/A/ | d4 d4- | %39
 d/d/c/B/ c2- c2 z2[Q:1/4=75] | z/ c/B/c/ A/a/A/c/ [=GB][GB] z2 | z/ _B/A/B/ G/g/G/B/ [FA][FA] z2 | %42
 z/ _B/A/B/ F/f/B/d/ [E^G][EG] z2 | z/ A/^G/A/ E/e/A/c/ d4 | c4 z/ B/A/B/ E/e/B/d/ | [Ac]2 z2 z4 | %46
 z4 z2 z/ e/d/e/ | c/c/B/c/ B2- B/^F/4^G/4A- A/B/G | A/a/g/a/ f/f/e/f/ e2- e/B/4=c/4d- | %49
 d/e/^c d2- d/c/d/c/ d2- | d/^c/d/c/ d2- d/c/d/e/ f2- | f/e/f/g/ a2- a/b/^g/a/ f2- | %52
 f/f/e/d/[Q:1/4=60] ^g2 [ea]4 |][M:6/8][Q:1/4=80]"^Fugue" Ac/B/c/A/ BE/B/e/B/ | cAe f/e/f/d/f/c/ | %55
 f/d/f/B/f/G/ e/d/e/c/e/B/ | e/c/e/A/e/F/ d/c/d/B/d/A/ | d/B/d/^G/d/E/ c/A/c/e/a/^f/ | %58
 g e2- e/^d/e/^c/d/^f/ | b3- ba/g/^f/e/ | a3- ag/^f/e/d/ | g3- g^f/e/^d/e/ | ^f3- fe/f/g- | %63
 g/g/^f/e/f/d/ e a2- | a/a/^g/^f/g/a/ c'3- | c'/c'/b/a/g/^f/ e3- | e/e/d/c/B/A/ ^G/A/B/c/d/B/ | %67
 c/d/e/d/e/f/ d3- | d/d/ e2- ed/c/B/A/ | z6 | z6 | z6 | z6 | z6 | z6 | z6 | z6 | z6 | z6 | z6 | %80
 z6 | z6 | z6 | z6 | z6 | z6 | z6 | z6 | z6 | z6 | z6 | z6 | z6 | z6 | z6 | z6 | z6 | z6 | z6 | %99
 z6 | z6 | z6 | z6 | z6 | z6 | z6 | z6 | z6 | z6 | z6 | z6 | z6 | z6 | z6 | z6 | z6 | z6 | z6 | %118
 z6 | z6 | z6 | z6 | z6 | z6 | z6 | z6 | z6 | z6 | z6 | z6 | z6 | z6 | z6 | z6 | z6 | z6 | z6 | %137
 z6 | z6 | z6 | z6 | z6 | z6 | z6 | z6 | z6 | z6 | z6 | z6 | z6 | z6 | z6 | z6 | z6 | z6 | z6 | %156
 z6 | z6 | z6 | z6 | z6 | z6 | z6 | z6 | z6 | z6 | z6 | z6 | z6 | z6 | z6 | z6 | z6 | z6 | z6 | %175
 z6 | z6 | z6 | z6 | z6 | z6 | z6 | z6 | z6 | z6 | z6 | z6 | z6 | z6 | z6 | z6 | z6 | z6 | z6 | %194
 z6 | z6 | z6 | z6 | z6 | z6 | z6 | z6 | z6 | z6 |] %204
V:2
 x8 | x8 | x8 | x8 | x8 | x8 | ^F,/E/A,/E/ =F,/D/A,/D/ E,/D/^G,/D/ E,/C/=G,/C/ | %7
 ^D,/C/^F,/C/ =D,/B,/=F,/B,/ ^C,/B,/E,/B,/ =C,/A,/E,/A,/ | %8
 B,,/A,/D,/A,/ B,,/^G,/D,/G,/ (3A,,/C,/E,/ (3B,/G,/A,/ (3B,,/D,/E,/ (3B,/G,/A,/ | %9
 (3C,/E,/A,/ (3B,/^G,/A,/ (3D,/F,/A,/ (3B,/G,/A,/ (3E,/A,/C/ (3B,/G,/A,/ (3F,/A,/D/ (3B,/G,/A,/ | %10
 (3z/ A,/C/ x (3z/ A,/D/ x (3z/ A,/C/ x (3z/ ^G,/B,/ x | %11
 (3E,/A,/C/ x (3F,/A,/D/ x (3E,/A,/C/ x (3D,/^G,/B,/ x | %12
 (3z/ E,/A,/ x (3z/ F,/A,/ x (3z/ E,/A,/ x (3z/ D,/^G,/ x | %13
 (3A,,/E,/A,/ x (3B,,/E,/A,/ x (3C,/E,/A,/ x (3^C,/E,/G,/ x | %14
 (3z/ F,/A,/ x (3z/ E,/A,/ x (3z/ F,/A,/ x (3z/ G,/A,/ x | %15
 (3F,/A,/D/ x (3G,/_B,/D/ x (3A,/[I:staff -1]D/F/[I:staff +1] x (3B,/[I:staff -1]D/G/[I:staff +1] x | %16
 A,2 _B,2 A,2 G,2 | (3A,/D/F/ x (3_B,/^C/E/ x (3A,/D/F/ x (3G,/C/E/ x | %18
 (3F,/A,/D/ x (3G,/^C/E/ x (3F,/A,/D/ x (3E,/G,/C/ x | %19
 (3D,/A,/D/ x (3E,/G,/_B,/ x (3^F,/A,/^C/ x (3^G,/=B,/D/ x | %20
 (3A,/C/E/ x (3^G,/B,/E/ x (3A,/C/E/ x (3B,/D/F/ x | x8 | %22
 x4[I:staff -1] F/4[I:staff +1]^G,/4[I:staff -1]F/4[I:staff +1]G,/4[I:staff -1]F/4[I:staff +1]G,/4[I:staff -1]F/4[I:staff +1]G,/4[I:staff -1] F/4[I:staff +1]G,/4[I:staff -1]F/4[I:staff +1]G,/4[I:staff -1]F/4[I:staff +1]G,/4[I:staff -1]F/4[I:staff +1]G,/4 | %23
 [A,E-]8 | [B,E]4 z4 | z8 | z8 | z8 | z2 z/ E/F/^C/ D4 | z8 | z4 A,,E,A,B, | CDEF E4 | D z x2 x4 | %33
 A,/4C/4B,/4C/4[I:staff -1]_E/4C/4B,/4C/4[I:staff +1] A,/4C/4B,/4C/4^F,/4A,/4G,/4A,/4 D,/4F,/4A,/4C/4 E/4D/4C/4B,/4 A,/4G,/4F,/4E,/4D,/4C,/4B,,/4A,,/4 | %34
 G,,/4 D,/4E,/4^F,/4G,/4A,/4B,/4C/4 B,/4G,/4A,/4B,/4C/4[I:staff -1]D/4E/4^F/4[I:staff +1] x4 | x8 | %36
 x4 z/ F,/A,/F,/ B,/B,/D/B,/ | x8 | x4 z/ D,/F,/D,/ ^G,/G,/B,/G,/ | A,4- A,2 z2 | x8 | x8 | x8 | %43
 x4 z/ A,/G,/A,/ D,/D/G,/B,/ | C/E,/D,/E,/ F,F, F,F,E,E, | E,2 z2 z4 | z8 | %47
 z2 z/ E/D/E/ C3/2B,/4A,/4 B,>D | E2 D z[K:treble] z/ A/G/A/ F3/2E/4D/4 | E>G F2- F/E/F/E/ F2- | %50
 F/E/F/E/ F2- F/E/F/G/ A2- | A2 d^c A2 z/ F/E/D/ | ^CD/E/ F/D/=C/B,/ [^CEA]4 |][M:6/8][K:bass] z6 | %54
 z6 | z6 | z6 | z6 | z6 | z6 | z6 | z6 | z6 | z6 | z6 | z6 | z6 | A,C/B,/C/A,/ B,E,/B,/E/B,/ | %68
 CA,E F/E/F/D/F/C/ | F/D/F/B,/F/G,/ E/D/E/C/E/B,/ | E/C/E/A,/E/F,/ D/C/D/B,/D/A,/ | %71
 D/B,/D/^G,/D/E,/ C/B,/C/G,/A,/C/ | z6 | z6 | z6 | z6 | z6 | z6 | z6 | z6 | z6 | z6 | z6 | z6 | %84
 z6 | z6 | z6 | z6 | z6 | z6 | z6 | z6 | z6 | z6 | z6 | z6 | z6 | z6 | z6 | z6 | z6 | z6 | z6 | %103
 z6 | z6 | z6 | z6 | z6 | z6 | z6 | z6 | z6 | z6 | z6 | z6 | z6 | z6 | z6 | z6 | z6 | z6 | z6 | %122
 z6 | z6 | z6 | z6 | z6 | z6 | z6 | z6 | z6 | z6 | z6 | z6 | z6 | z6 | z6 | z6 | z6 | z6 | z6 | %141
 z6 | z6 | z6 | z6 | z6 | z6 | z6 | z6 | z6 | z6 | z6 | z6 | z6 | z6 | z6 | z6 | z6 | z6 | z6 | %160
 z6 | z6 | z6 | z6 | z6 | z6 | z6 | z6 | z6 | z6 | z6 | z6 | z6 | z6 | z6 | z6 | z6 | z6 | z6 | %179
 z6 | z6 | z6 | z6 | z6 | z6 | z6 | z6 | z6 | z6 | z6 | z6 | z6 | z6 | z6 | z6 | z6 | z6 | z6 | %198
 z6 | z6 | z6 | z6 | z6 | z6 |] %204
V:3
 z8 | z8 | z8 | z8 | z8 | z8 | z8 | z8 | z8 | A,,8- | A,,8- | A,,8- | A,,8- | A,,8- | A,,8- | %15
 A,,8- | A,,8- | A,,8- | A,,8- | A,,8- | A,,8- | A,,8- | A,,8- | %23
 A,,/ A,,/C,/A,,/ E,/ C,/E,/C,/ A,/ E,/A,/E,/ C/^D,/E, | E,,4 z/ E,/^G,/E,/ B,/E,/G,/E,/ | %25
 C/^D,/^F,/D,/ B,/=D,/=F,/D,/ B,/^C,/E,/C,/ A,/=C,/E,/C,/ | %26
 A,/B,,/^D,/B,,/ ^G,/B,,/=D,/B,,/ =G,/^C,/E,/A,,/ F,/C,/D,/^G,,/ | %27
 ^C,/A,,/E,/C,/ G,/E,/_B,/G,/ ^C/G,/A,/E,/ F,2- | F,4- F,2- F,/E,/F,/D,/ | ^G,8- | G,4 A,4- | %31
 A,4- A,2- A,/G,/A,/E,/ | ^F,8- | F,8 | G,4- G,2- G,/G,/D,/G,/ | E,E,E,E, F,F,F,F, | %36
 F,F,E,E, z/ D,/F,/D,/ G,/G,,/B,,/G,,/ | C,2 z2 z4 | C,2 z2 z/ B,,/D,/B,,/ E,/E,,/^G,,/E,,/ | %39
 A,,4- A,,/A,/^G,/A,/ E,/C/E,/=G,/ | ^F,F, z2 z/ G,/F,/G,/ D,/B,/D,/=F,/ | %41
 E,E,, z2 z/ F,/E,/F,/ C,/A,/C,/E,/ | D,D,, z2 z/ E,/D,/E,/ B,,/^G,/B,,/D,/ | C,C,C,C, C,C,B,,B,, | %44
 B,,B,,A,,A,, A,,A,,^G,,G,, | A,,/A,/^G,/A,/ E,/C/E,/A,/ C,/E,/^D,/E,/ C,/A,/C,/E,/ | %46
 A,,/C,/B,,/C,/ A,,/E,/A,,/C,/ E,,4- | E,,8 | A,,8- | A,,2 z/ D,/^C,/D,/ A,,A, z/ D,/C,/D,/ | %50
 A,,A, z/ F,/E,/F,/ D,A, z/ F,/E,/F,/ | D,A, z/ A,/G,/A,/ F,D z/ B,/^G,/B,/ | A,,8 |][M:6/8] z6 | %54
 z6 | z6 | z6 | z6 | z6 | z6 | z6 | z6 | z6 | z6 | z6 | z6 | z6 | z6 | z6 | z6 | z6 | z6 | z6 | %73
 z6 | z6 | z6 | z6 | z6 | z6 | z6 | z6 | z6 | z6 | z6 | z6 | z6 | z6 | z6 | z6 | z6 | z6 | z6 | %92
 z6 | z6 | z6 | z6 | z6 | z6 | z6 | z6 | z6 | z6 | z6 | z6 | z6 | z6 | z6 | z6 | z6 | z6 | z6 | %111
 z6 | z6 | z6 | z6 | z6 | z6 | z6 | z6 | z6 | z6 | z6 | z6 | z6 | z6 | z6 | z6 | z6 | z6 | z6 | %130
 z6 | z6 | z6 | z6 | z6 | z6 | z6 | z6 | z6 | z6 | z6 | z6 | z6 | z6 | z6 | z6 | z6 | z6 | z6 | %149
 z6 | z6 | z6 | z6 | z6 | z6 | z6 | z6 | z6 | z6 | z6 | z6 | z6 | z6 | z6 | z6 | z6 | z6 | z6 | %168
 z6 | z6 | z6 | z6 | z6 | z6 | z6 | z6 | z6 | z6 | z6 | z6 | z6 | z6 | z6 | z6 | z6 | z6 | z6 | %187
 z6 | z6 | z6 | z6 | z6 | z6 | z6 | z6 | z6 | z6 | z6 | z6 | z6 | z6 | z6 | z6 | z6 |] %204
V:4
 x8 | x8 | x8 | x8 | x8 | x8 | x8 | x8 | x8 | x8 | E,2 F,2 E,2 D,2 | x8 | C,2 D,2 C,2 B,,2 | x8 | %14
 D,2 ^C,2 D,2 E,2 | x8 | x8 | x8 | x8 | x8 | x8 | x8 | x8 | x8 | x8 | x8 | x8 | x8 | %28
 z4 z/ A,/_B,/G,/ A,2 | x8 | x8 | x8 | x8 | x8 | x8 | x8 | x8 | x8 | x8 | x8 | x8 | x8 | x8 | x8 | %44
 x4 x B,B,B, | A,2 z2 z4 | x8 | x8 | C ^C x2[K:treble] x4 | x8 | x8 | x8 | x2 F2 A,4 |] %53
[M:6/8][K:bass] x6 | x6 | x6 | x6 | x6 | x6 | x6 | x6 | x6 | x6 | x6 | x6 | x6 | x6 | x6 | x6 | %69
 x6 | x6 | x6 | x6 | x6 | x6 | x6 | x6 | x6 | x6 | x6 | x6 | x6 | x6 | x6 | x6 | x6 | x6 | x6 | %88
 x6 | x6 | x6 | x6 | x6 | x6 | x6 | x6 | x6 | x6 | x6 | x6 | x6 | x6 | x6 | x6 | x6 | x6 | x6 | %107
 x6 | x6 | x6 | x6 | x6 | x6 | x6 | x6 | x6 | x6 | x6 | x6 | x6 | x6 | x6 | x6 | x6 | x6 | x6 | %126
 x6 | x6 | x6 | x6 | x6 | x6 | x6 | x6 | x6 | x6 | x6 | x6 | x6 | x6 | x6 | x6 | x6 | x6 | x6 | %145
 x6 | x6 | x6 | x6 | x6 | x6 | x6 | x6 | x6 | x6 | x6 | x6 | x6 | x6 | x6 | x6 | x6 | x6 | x6 | %164
 x6 | x6 | x6 | x6 | x6 | x6 | x6 | x6 | x6 | x6 | x6 | x6 | x6 | x6 | x6 | x6 | x6 | x6 | x6 | %183
 x6 | x6 | x6 | x6 | x6 | x6 | x6 | x6 | x6 | x6 | x6 | x6 | x6 | x6 | x6 | x6 | x6 | x6 | x6 | %202
 x6 | x6 |] %204
V:5
 x8 | x8 | x8 | x8 | x8 | x8 | x8 | x8 | x8 | x8 | x8 | x8 | x8 | x8 | x8 | x8 | x8 | x8 | x8 | %19
 x8 | x8 | x8 | x8 | A8- | A/A/^G/^F/ G/F/G/^D/ E z z2 | x8 | x8 | x8 | z/ A/_B/G/ A2- A4 | x8 | %30
 x8 | z4 z/ d/e/B/ c2- | %32
 c/4c/4B/4c/4 z/4 c/4B/4c/4 A/4c/4B/4c/4^F/4A/4G/4A/4 D/4A/4G/4A/4c/4A/4G/4A/4 F/4A/4G/4A/4D/4F/4E/4F/4 | %33
 x8 | x8 | z4 z/ F/A/F/ d/F/A/F/ | z/ G/B/G/ c/C/E/C/ AAGG | %37
[I:staff +1] C/[I:staff -1]E/G/E/ _B/E/G/E/ A/D/F/D/ G/C/E/C/ | ^F2- F/F/G/E/ =F2 E2- | E4- E2 z2 | %40
 z/ A/^G/A/ D/^F/F/A/ DD z2 | z/ G/F/G/ C/E/E/G/ CC z2 | z/ D/C/D/ _B,/D/D/F/ =B,B, z2 | %43
 z/ C/B,/C/[I:staff +1] A,/[I:staff -1]C/C/E/ z/ ^F/E/F/ =G=F | E/G/F/G/ C/A/G/A/ DDEE | E2 z2 z4 | %46
 z8 | z/ A/^G/A/ G/G/^F/G/ E2- E2 | x2 z/ d/^c/d/ c/c/B/c/ A2- | A2 A2- AA A2- | AA A2- AA d2- | %51
 d/^c/d/e/ fe d/=c/B/A/ ^G2 | A2 z/ f/e/d/ ^c4 |][M:6/8] z6 | z6 | z6 | z6 | z6 | %58
 EG/^F/G/E/ FB,/F/B/F/ | GEB c/B/c/A/c/G/ | c/A/c/^F/c/D/ B/A/B/G/B/F/ | %61
 B/G/B/E/B/C/ A/G/A/^F/A/E/ | A/^F/A/^D/A/B,/ G/E/G/B/e/^c/ | d3- d/^G/A/c/^f/^d/ | %64
 e3- e/d/c/B/c/A/ | d3- d/d/c/B/A/G/ | F3- F/E/C/E/^F/^G/ | A3- A/^G/A/^F/G/A/ | Ec/B/A/^G/ A3 | %69
 x6 | x6 | x6 | x6 | x6 | x6 | x6 | x6 | x6 | x6 | x6 | x6 | x6 | x6 | x6 | x6 | x6 | x6 | x6 | %88
 x6 | x6 | x6 | x6 | x6 | x6 | x6 | x6 | x6 | x6 | x6 | x6 | x6 | x6 | x6 | x6 | x6 | x6 | x6 | %107
 x6 | x6 | x6 | x6 | x6 | x6 | x6 | x6 | x6 | x6 | x6 | x6 | x6 | x6 | x6 | x6 | x6 | x6 | x6 | %126
 x6 | x6 | x6 | x6 | x6 | x6 | x6 | x6 | x6 | x6 | x6 | x6 | x6 | x6 | x6 | x6 | x6 | x6 | x6 | %145
 x6 | x6 | x6 | x6 | x6 | x6 | x6 | x6 | x6 | x6 | x6 | x6 | x6 | x6 | x6 | x6 | x6 | x6 | x6 | %164
 x6 | x6 | x6 | x6 | x6 | x6 | x6 | x6 | x6 | x6 | x6 | x6 | x6 | x6 | x6 | x6 | x6 | x6 | x6 | %183
 x6 | x6 | x6 | x6 | x6 | x6 | x6 | x6 | x6 | x6 | x6 | x6 | x6 | x6 | x6 | x6 | x6 | x6 | x6 | %202
 x6 | x6 |] %204
V:6
 x8 | x8 | x8 | x8 | x8 | x8 | x8 | x8 | x8 | x8 | x8 | x8 | x8 | x8 | x8 | x8 | x8 | x8 | x8 | %19
 x8 | x8 | x8 | x8 | x8 | x8 | x8 | x8 | x8 | x8 | x8 | x8 | x8 | x8 | x8 | x8 | x8 | x8 | x8 | %38
 z/ A/B/G/ A2 ^GA B2- | B2- B/B/A/^G/ A2 z2 | x8 | x8 | x8 | x8 | x8 | x8 | x8 | x8 | x8 | x8 | %50
 x8 | x8 | x8 |][M:6/8] x6 | x6 | x6 | x6 | x6 | x6 | x6 | x6 | x6 | x6 | x6 | x6 | x6 | x6 | x6 | %68
 x6 | x6 | x6 | x6 | x6 | x6 | x6 | x6 | x6 | x6 | x6 | x6 | x6 | x6 | x6 | x6 | x6 | x6 | x6 | %87
 x6 | x6 | x6 | x6 | x6 | x6 | x6 | x6 | x6 | x6 | x6 | x6 | x6 | x6 | x6 | x6 | x6 | x6 | x6 | %106
 x6 | x6 | x6 | x6 | x6 | x6 | x6 | x6 | x6 | x6 | x6 | x6 | x6 | x6 | x6 | x6 | x6 | x6 | x6 | %125
 x6 | x6 | x6 | x6 | x6 | x6 | x6 | x6 | x6 | x6 | x6 | x6 | x6 | x6 | x6 | x6 | x6 | x6 | x6 | %144
 x6 | x6 | x6 | x6 | x6 | x6 | x6 | x6 | x6 | x6 | x6 | x6 | x6 | x6 | x6 | x6 | x6 | x6 | x6 | %163
 x6 | x6 | x6 | x6 | x6 | x6 | x6 | x6 | x6 | x6 | x6 | x6 | x6 | x6 | x6 | x6 | x6 | x6 | x6 | %182
 x6 | x6 | x6 | x6 | x6 | x6 | x6 | x6 | x6 | x6 | x6 | x6 | x6 | x6 | x6 | x6 | x6 | x6 | x6 | %201
 x6 | x6 | x6 |] %204

